X:1
T:Orfevs sjöng
T:Orfevs sjöng
T:Ur Shakesperes Henrik VIII
T:Otto Lindblad
T:Övers. af C. A. Hagberg
C:Otto Lindblad
Z:Övers. af C. A. Hagberg
%%score [ 1 2 3 4 ]
L:1/8
Q:1/4=72
M:3/4
K:Ab
V:1 treble-8 nm="T1"
V:2 treble-8 nm="T2"
V:3 bass nm="B1"
V:4 bass nm="B2"
V:1
!p!"^Soli""^Andante" c d c2 B2 | d e d2 c2 | f f f3 e | d =d e3 _d |!<(! c c!<)! c2 c2 | %5
w: Or- fevs sjöng; vid|lu- tans to- ner|fjäl- lens snö- be-|täck- ta zo- ner|sänk- te sig för|
!>(! f4 B2!>)! |!>(! e4 z!>)!!p! d | c d c2 e2 | e d c2 c2 | A4 z2 |!f!"^Tutti" B3 e =d e | f4 B2 | %12
w: skal- dens|sång, de|sänk- te sig för|skal- dens ljuf- va|sång.|Blom- mans kalk och|trä- dens|
 (ge) f2 z2 | c3 f =e f | g4 c2 | (af) g2 z2 |!>(! g4 a2!>)! |!>(! =e4 f2!>)! | d d d2 d2 | %19
w: top- * par,|so- lens ljus och|dag- gens|drop- * par|följ- de|gär- na|tju- sta to- ners|
!>(! c6!>)! |"^Soli"!pp! c d c2 e2 | e d c2 B2 | A4!mf!"^Tutti" c c | %23
w: gång,|följ- de gär- na|tju- sta to- ners|gång. Allt hvad|
[M:4/4]"^Un poco più animato""^cresc." c3 c c3 c | =d2 d2 z2 d d |!<(! =e3 e e3 e!<)! | %26
w: lif och an- da|ha- de, allt hvad|lif och an- da|
!<(! f2 f2!<)! z2!f! f g | !>!a3 a g2 f2 |"^dim." =e2!>(! c2!>)! z2!pp! c c | c3 c c3 c | %30
w: ha- de, haf- vet|själft sig stil- la|la- de, för att|lyss som spe- gel-|
 c4 z2 c c | d3 d d3 d |!<(! d2 c2!<)!!f!!>(! a3 g!>)! |"^dim." f2 f2 f2 f2 | %34
w: sjö. Så mu-|si- ken döf- var|smär- tan; kval- da|sin- nen, bru- stna|
[M:3/4]"^Tempo I"!>(! e2"^rit." =d2 _d2!>)! |!p!"^Soli" c c c2 c2 | f4 B2 | e4 z!pp! d | %38
w: hjär- * tan|som- na el- ler|stil- la|dö, de|
 c d c2 e2 | e d c2 B2 | A4 z2 |] %41
w: som- na ljuf- ligt|el- ler stil- la|dö.|
V:2
!p!"^Soli" A A A2 G2 | A A A2 A2 | A A =A3 A | B _A (GA) B2 |!<(! c c!<)! c2 c2 |!>(! _c4 B2!>)! | %6
w: Or- fevs sjöng; vid|lu- tans to- ner|fjäl- lens snö- be-|täck- ta zo- * ner|sänk- te sig för|skal- dens|
!>(! =A4 z!>)!!p! B | _A A A2 A2 | B B A2 G2 | E4 z2 |!f!"^Tutti" B3 B B B | B4 B2 | (Be) =d2 z2 | %13
w: sång, de|sänk- te sig för|skal- dens ljuf- va|sång.|Blom- mans kalk och|trä- dens|top- * par,|
 c3 c c c | c4 c2 | (cf) =e2 z2 |!>(! =e4 f2!>)! |!>(! c4 c2!>)! | B B B2 B2 |!>(! A6!>)! | %20
w: so- lens ljus och|dag- gens|drop- * par|följ- de|gär- na|tju- sta to- ners|gång,|
"^Soli"!pp! A A A2 A2 | B B A2 G2 | E4!mf!"^Tutti" c c |[M:4/4]"^cresc." G3 G G3 G | A2 A2 z2 A A | %25
w: följ- de gär- na|tju- sta to- ners|gång. Allt hvad|lif och an- da|ha- de, allt hvad|
!<(! B3 B B3 B!<)! |!<(! c2 c2!<)! z2!f! c c | !>!=d3 d d2 d2 |"^dim." c2!>(! G2!>)! z2!pp! G A | %29
w: lif och an- da|ha- de, haf- vet|själft sig stil- la|la- de, för att|
 B3 G A3 F | G4 z2 G G | G3 G A3 A |!<(! B2 A2!<)!!f!!>(! c3 c!>)! |"^dim." c2 _c2 B2 A2 | %34
w: lyss som spe- gel-|sjö. Så mu-|si- ken döf- var|smär- tan; kval- da|sin- nen, bru- stna|
[M:3/4]!>(! (G2"^rit." A2) B2!>)! |!p!"^Soli" c c c2 c2 | _c4 B2 | =A4 z!pp! B | _A A A2 A2 | %39
w: hjär- * tan|som- na el- ler|stil- la|dö, de|som- na ljuf- ligt|
 B B A2 G2 | E4 z2 |] %41
w: el- ler stil- la|dö.|
V:3
!p!"^Soli" E, F, E,2 D,2 | F, G, F,2 E,2 | F, F, F,3 F, | F, F, (E,F,) G,2 | %4
w: Or- fevs sjöng; vid|lu- tans to- ner|fjäl- lens snö- be-|täck- ta zo- * ner|
!<(! A, A,!<)! A,2 A,2 |!>(! A,4 G,2!>)! |!>(! _G,4 z!>)!!p! F, | E, E, E,2 E,2 | F, F, E,2 D,2 | %9
w: sänk- te sig för|skal- dens|sång, de|sänk- te sig för|skal- dens ljuf- va|
 C,4 z2 |!f!"^Tutti" G,3 B, A, G, | A,4 A,2 | (G,B,) B,2 z2 | A,3 C B, A, | B,4 B,2 | (A,C) C2 z2 | %16
w: sång.|Blom- mans kalk och|trä- dens|top- * par,|so- lens ljus och|dag- gens|drop- * par|
!>(! D4 C2!>)! |!>(! B,4 A,2!>)! | G, G, G,2 G,2 |!>(! F,6!>)! |"^Soli"!pp! E, E, E,2 E,2 | %21
w: följ- de|gär- na|tju- sta to- ners|gång,|följ- de gär- na|
 F, F, E,2 D,2 | C,4!mf!"^Tutti" C C |[M:4/4]"^cresc." E,3 E, E,3 E, | F,2 F,2 z2 F, F, | %25
w: tju- sta to- ners|gång. Allt hvad|lif och an- da|ha- de, allt hvad|
!<(! G,3 G, G,3 G,!<)! |!<(! A,2 A,2!<)! z2!f! A, =E, | !>!F,3 F, G,2 A,2 | %28
w: lif och an- da|ha- de, haf- vet|själft sig stil- la|
"^dim." G,2!>(! =E,2!>)! z2!pp! E, F, | G,3 =E, F,3 =D, | =E,4 z2 E, E, | =E,3 E, E,3 E, | %32
w: la- de, för att|lyss som spe- gel-|sjö. Så mu-|si- ken döf- var|
!<(! _E,2 E,2!<)!!f!!>(! F,3 E,!>)! |"^dim." E,2 E,2 =D,2 D,2 | %34
w: smär- tan; kval- da|sin- nen, bru- stna|
[M:3/4]!>(! (E,2"^rit." F,2) G,2!>)! |!p!"^Soli" A, A, A,2 A,2 | A,4 G,2 | _G,4 z!pp! F, | %38
w: hjär- * tan|som- na el- ler|stil- la|dö, de|
 E, E, E,2 E,2 | F, F, E,2 D,2 | C,4 z2 |] %41
w: som- na ljuf- ligt|el- ler stil- la|dö.|
V:4
!p!"^Soli" A,, A,, A,,2 A,,2 | A,, A,, A,,2 A,,2 | D, D, C,3 C, | B,, B,, E,2 E,2 | %4
w: Or- fevs sjöng; vid|lu- tans to- ner|fjäl- lens snö- be-|täck- ta zo- ner|
!<(! A, G,!<)! F,2 E,2 |!>(! =D,4 (E,_D,)!>)! |!>(! C,4 z!>)!!p! D, | E, E, E,2 C,2 | %8
w: sänk- te sig för|skal- dens _|sång, de|sänk- te sig för|
 D, D, E,2 E,,2 | A,,4 z2 |!f!"^Tutti" E,3 G, F, E, | =D,4 F,2 | (E,G,) B,2 z2 | A,3 A, G, F, | %14
w: skal- dens ljuf- va|sång.|Blom- mans kalk och|trä- dens|top- * par,|so- lens ljus och|
 =E,4 G,2 | (F,A,) C2 z2 |!>(! B,4 A,2!>)! |!>(! G,4 F,2!>)! | =E, E, E,2 E,2 |!>(! F,6!>)! | %20
w: dag- gens|drop- * par|följ- de|gär- na|tju- sta to- ners|gång,|
"^Soli"!pp! E, E, E,2 C,2 | D, D, E,2 E,,2 | A,,4!mf!"^Tutti" C, C, | %23
w: följ- de gär- na|tju- sta to- ners|gång. Allt hvad|
[M:4/4]"^cresc." C,3 C, C,3 C, | C,2 C,2 z2 C, C, |!<(! C,3 C, C,3 C,!<)! | %26
w: lif och an- da|ha- de, allt hvad|lif och an- da|
!<(! C,2 C,2!<)! z2!f! C, C, | !>!=B,,3 B,, B,,2 B,,2 |"^dim." C,2!>(! C,2!>)! z2!pp! C, C, | %29
w: ha- de, haf- vet|själft sig stil- la|la- de, för att|
 C,3 C, C,3 C, | C,4 z2 C, C, | B,,3 B,, A,,3 A,, |!<(! G,,2 A,,2!<)!!f!!>(! F,,3 G,,!>)! | %33
w: lyss som spe- gel-|sjö. Så mu-|si- ken döf- var|smär- tan; kval- da|
"^dim." A,,2 A,,2 B,,2 B,,2 |[M:3/4]"^rit."!>(! E,4 E,2!>)! |!p!"^Soli" A, G, F,2 E,2 | %36
w: sin- nen, bru- stna|hjär- tan|som- na el- ler|
 =D,4 (E,_D,) | C,4 z!pp! D, | E, E, E,2 C,2 | D, D, E,2 E,,2 | A,,4 z2 |] %41
w: stil- la *|dö, de|som- na ljuf- ligt|el- ler stil- la|dö.|

